X: 1
T: Midnight, The
M: 4/4
L: 1/8
R: reel
K: Dmaj
d3A BAFA|ABdA BAFA|BEED EFGA|Bdce dcBA|
d3A BAFA|ABdA BAFA|BEED EFGA|(3Bcd ce dABc||
d2ed (3ddd ed|(3ddd ef gfec|defd Adfa|bfaf gfec|
d2ed (3ddd ed|(3ddd ef gfec|defd Adfa|bfaf gfec :|d8||
